X: 37048
T: Silver Mines, The
R: jig
M: 6/8
K: Dmajor
FG|:A3 AGF|AdA AGF|G2E EDE|GFG EFG|
A3 AGF|ABc dAG|EFD DED|1 FEF DFG:|2 FEF D2d||
|:cBc dAF|ABc dAF|G2E EDE|GFG EFd|
cBc dAF|ABc dAG|EFD DED|1 FEF D2d:|2 FEF DFG||
|:A>FG/A/ DFF|DFA AGF|G2E EDE|GFG EFG|
A>FG/A/ DFF|DFA AGE|EFD DED|1 FEF DFG:|2 FEF D2g||
|:fed faf|gbg faf|g2e ece|gfg efg|
fed faf|gbg age|fed dAd|efd d2g:|
|:faf geg|fdB AGF|G2E EDE|GFG Efg|
fdB ecA|dBG AGE|EFD DED|1 FEF D2g:|2 FEF D3||

